svg/nature/flower_3_fill.svg

<?xml version="1.0" encoding="UTF-8"?>
<svg width="24px" height="24px" viewBox="0 0 24 24" version="1.1" xmlns="http://www.w3.org/2000/svg" xmlns:xlink="http://www.w3.org/1999/xlink">
    <title>flower_3_fill</title>
    <g id="Icon" stroke="none" stroke-width="1" fill="none" fill-rule="evenodd">
        <g id="Nature" transform="translate(-192.000000, -144.000000)" fill-rule="nonzero">
            <g id="flower_3_fill" transform="translate(192.000000, 144.000000)">
                <path d="M24,0 L24,24 L0,24 L0,0 L24,0 Z M12.5935,23.2578 L12.5819,23.2595 L12.5109,23.295 L12.4919,23.2987 L12.4767,23.295 L12.4057,23.2595 C12.3958,23.2564 12.387,23.259 12.3821,23.2649 L12.378,23.2758 L12.3609,23.7031 L12.3659,23.7235 L12.3769,23.7357 L12.4805,23.8097 L12.4953,23.8136 L12.5071,23.8097 L12.6107,23.7357 L12.6233,23.7197 L12.6267,23.7031 L12.6096,23.2758 C12.6076,23.2657 12.601,23.2593 12.5935,23.2578 Z M12.8584,23.1453 L12.8445,23.1473 L12.6598,23.2397 L12.6499,23.2499 L12.6472,23.2611 L12.6651,23.6906 L12.6699,23.7034 L12.6784,23.7105 L12.8793,23.8032 C12.8914,23.8069 12.9022,23.803 12.9078,23.7952 L12.9118,23.7812 L12.8777,23.1665 C12.8753,23.1546 12.8674,23.147 12.8584,23.1453 Z M12.143,23.1473 C12.1332,23.1424 12.1222,23.1453 12.1156,23.1526 L12.1099,23.1665 L12.0758,23.7812 C12.0751,23.7927 12.0828,23.8019 12.0926,23.8046 L12.1083,23.8032 L12.3092,23.7105 L12.3186,23.7024 L12.3225,23.6906 L12.3404,23.2611 L12.3372,23.2485 L12.3278,23.2397 L12.143,23.1473 Z" id="MingCute"></path>
                <path d="M7.76001,11.24 C7.86423,11.24 7.96769,11.2432 8.07031,11.2494 C8.02416,11.4926 8,11.7435 8,12 C8,13.1928 8.52209,14.2636 9.35023,14.9965 C9.27781,15.4001 9.23999,15.8157 9.23999,16.24 C9.23999,17.8921 9.81231,19.4105 10.7695,20.6077 C10.1253,20.8608 9.42367,21 8.69,21 C5.5475,21 3,18.4525 3,15.31 C3,15.0561 3.01667,14.806 3.04895,14.5608 C3.73886,12.6254 5.58765,11.24 7.76001,11.24 Z M20.6078,13.2305 C20.8608,13.8747 21,14.5763 21,15.31 C21,18.4525 18.4525,21 15.31,21 C15.0561,21 14.806,20.9833 14.5608,20.951 C12.6254,20.2611 11.24,18.4123 11.24,16.24 C11.24,16.1358 11.2432,16.0323 11.2494,15.9297 C11.4926,15.9758 11.7435,16 12,16 C13.1928,16 14.2636,15.4779 14.9965,14.6498 C15.4001,14.7222 15.8157,14.76 16.24,14.76 C17.8921,14.76 19.4105,14.1877 20.6078,13.2305 Z M12,10 C13.1046,10 14,10.8954 14,12 C14,13.1046 13.1046,14 12,14 C10.8954,14 10,13.1046 10,12 C10,10.8954 10.8954,10 12,10 Z M15.31,3 C18.4525,3 21,5.5475 21,8.69 C21,8.94392 20.9833,9.194 20.951,9.43919 C20.2611,11.3746 18.4123,12.76 16.24,12.76 C16.1358,12.76 16.0323,12.7568 15.9297,12.7506 C15.9758,12.5074 16,12.2565 16,12 C16,10.8072 15.4779,9.73635 14.6498,9.0035 C14.7222,8.59989 14.76,8.18432 14.76,7.76001 C14.76,6.10793 14.1877,4.58953 13.2305,3.39225 C13.8747,3.13915 14.5763,3 15.31,3 Z M8.69,3 C8.94392,3 9.19399,3.01667 9.43918,3.04896 C11.3746,3.73887 12.76,5.58765 12.76,7.76001 C12.76,7.86423 12.7568,7.96769 12.7506,8.07031 C12.5074,8.02416 12.2565,8 12,8 C10.8072,8 9.73635,8.52209 9.00349,9.35023 C8.59988,9.27781 8.18432,9.23999 7.76001,9.23999 C6.10793,9.23999 4.58953,9.81231 3.39224,10.7695 C3.13915,10.1253 3,9.42367 3,8.69 C3,5.5475 5.5475,3 8.69,3 Z" id="形状" fill="#09244B"></path>
            </g>
        </g>
    </g>
</svg>

<svg xmlns="http://www.w3.org/2000/svg" width="24" height="24"><g fill="none" fill-rule="nonzero"><path d="M24 0v24H0V0h24ZM12.594 23.258l-.012.002-.071.035-.02.004-.014-.004-.071-.036c-.01-.003-.019 0-.024.006l-.004.01-.017.428.005.02.01.013.104.074.015.004.012-.004.104-.074.012-.016.004-.017-.017-.427c-.002-.01-.009-.017-.016-.018Zm.264-.113-.014.002-.184.093-.01.01-.003.011.018.43.005.012.008.008.201.092c.012.004.023 0 .029-.008l.004-.014-.034-.614c-.003-.012-.01-.02-.02-.022Zm-.715.002a.023.023 0 0 0-.027.006l-.006.014-.034.614c0 .012.007.02.017.024l.015-.002.201-.093.01-.008.003-.011.018-.43-.003-.012-.01-.01-.184-.092Z"/><path fill="#09244B" d="M7.76 11.24c.104 0 .208.003.31.01a3.99 3.99 0 0 0 1.28 3.747c-.072.403-.11.819-.11 1.243a6.97 6.97 0 0 0 1.53 4.368 5.69 5.69 0 0 1-7.72-6.047 5.002 5.002 0 0 1 4.71-3.321Zm12.848 1.99a5.69 5.69 0 0 1-6.047 7.72 5.002 5.002 0 0 1-3.312-5.02 3.99 3.99 0 0 0 3.747-1.28c.404.072.82.11 1.244.11a6.97 6.97 0 0 0 4.368-1.53ZM12 10a2 2 0 1 1 0 4 2 2 0 0 1 0-4Zm3.31-7a5.69 5.69 0 0 1 5.641 6.44 5.002 5.002 0 0 1-5.021 3.31 3.99 3.99 0 0 0-1.28-3.747c.072-.403.11-.819.11-1.243a6.97 6.97 0 0 0-1.53-4.368A5.675 5.675 0 0 1 15.31 3ZM8.69 3c.254 0 .504.017.75.049a5.002 5.002 0 0 1 3.31 5.021 3.99 3.99 0 0 0-3.747 1.28 7.036 7.036 0 0 0-1.243-.11 6.97 6.97 0 0 0-4.368 1.53A5.69 5.69 0 0 1 8.69 3Z"/></g></svg>
